images_elementary_svg/cmd/lc_verticalcaption.svg

<svg viewBox="0 0 24 24" xmlns="http://www.w3.org/2000/svg" xmlns:xlink="http://www.w3.org/1999/xlink"><radialGradient id="a" cx="605.71429" cy="486.64789" gradientTransform="matrix(-.01204859 0 0 -.0082353 17.761206 7.019521)" gradientUnits="userSpaceOnUse" r="117.14286" xlink:href="#b"/><linearGradient id="b"><stop offset="0"/><stop offset="1" stop-opacity="0"/></linearGradient><linearGradient id="c" gradientTransform="matrix(.0352071 0 0 -.0082353 -.724852 7.019538)" gradientUnits="userSpaceOnUse" x1="302.85715" x2="302.85715" y1="366.64789" y2="609.50507"><stop offset="0" stop-opacity="0"/><stop offset=".5"/><stop offset="1" stop-opacity="0"/></linearGradient><radialGradient id="d" cx="605.71429" cy="486.64789" gradientTransform="matrix(.01204859 0 0 -.0082353 13.238793 7.019521)" gradientUnits="userSpaceOnUse" r="117.14286" xlink:href="#b"/><linearGradient id="e" gradientTransform="matrix(0 -.4507042 -.46666668 0 22.881342 20.886296)" gradientUnits="userSpaceOnUse" x1="22.004084" x2="22.004084" y1="47.813133" y2="3.363852"><stop offset="0" stop-color="#aaa"/><stop offset="1" stop-color="#c8c8c8"/></linearGradient><linearGradient id="f"><stop offset="0" stop-color="#fff"/><stop offset=".11111111" stop-color="#fff" stop-opacity=".235294"/><stop offset="1" stop-color="#fff" stop-opacity=".156863"/><stop offset="1" stop-color="#fff" stop-opacity=".392157"/></linearGradient><linearGradient id="g" gradientUnits="userSpaceOnUse" x1="11" x2="20" xlink:href="#f" y1="9.5" y2="9.5"/><linearGradient id="h" gradientUnits="userSpaceOnUse" x1="16" x2="16" y1="13" y2="1"><stop offset="0" stop-color="#f4f4f4"/><stop offset="1" stop-color="#dbdbdb"/></linearGradient><linearGradient id="i" gradientUnits="userSpaceOnUse" x1="15" x2="15" y1="20" y2="4"><stop offset="0" stop-opacity=".339506"/><stop offset="1" stop-opacity=".246914"/></linearGradient><linearGradient id="j" gradientUnits="userSpaceOnUse" x1="15" x2="15" xlink:href="#f" y1="16" y2="7"/><g transform="matrix(1 0 0 -1 0 24)"><path d="m10.5 4v-1.999891c-.6204724-.0038-1.4999999.448075-1.4999999 1.000075 0 .551999.6924.999816 1.4999999.999816z" fill="url(#a)" opacity=".15"/><path d="m10.5 4 9.999999.000085v-2l-9.999999-.000085z" fill="url(#c)" opacity=".15"/><path d="m20.5 4v-1.999891c.620472-.0038 1.5.448075 1.5 1.000075 0 .551999-.692402.999816-1.5.999816z" fill="url(#d)" opacity=".15"/><path d="m11 4v.5 12.5h9v-13zm1 1h7v11h-7z" fill="url(#g)"/><path d="m10.5 3.5v14h10v-14zm-3.8125 5-2.15625 10.8125-.03125.1875h2l1.78125-8h2.71875l-.14162-3.0220971z" fill="url(#h)"/><path d="m11.5 4.5h8v12h-8z" fill="none" stroke="url(#j)"/><path d="m10 3v.5 4.5039062h-.5722656l.0019531-.0039062h-3.1542969l-.078125.4042969c-.7053676 3.6045231-1.4353388 7.2059901-2.15625 10.8105471l-.00195.0078-.1289094.777356h2.9902344l.087891-.390625c.6057518-2.706093 1.0478084-4.931793 1.6132809-7.609375h1.3984375v6h11v-15zm1 1h9v13h-9v-6h-1-1.1679688c.0004514-.002.0015-.0039.00195-.0059h-1.0097656c-.6383372 2.841652-1.121418 5.200425-1.7324187 8.0059h-.9882813c.6669279-3.331605 1.3395161-6.663325 1.9941406-10 1.3061748-.0034325 2.6024101.0117188 3.9023438.0117188z" fill="url(#i)"/><path d="m8.0117156 10.10348 2.9882844-.00973v.90625l-3.1757844-.0059z" fill="#fdfdfb"/><path d="m17.492709 15.035211v-1.647888zm0-1.830986v-.788732zm0-.929578v-.394365zm0-.549296v-.718309zm0-.873238v-.732395zm0-.87324v-1.169014zm0-1.323943v-1.521127zm0-1.661972v-1.014085zm0-1.15493v-.253521zm-2 9.197183v-1.929578zm0-2.084507v-2.084507zm0-2.225352v-.830986zm0-.971831v-1.957747zm0-2.084507v-1.338028zm0-1.492958v-.535211zm-1.992709 8.823944v-1.394366zm0-1.535211v-2.28169zm0-2.422536v-1.112676zm0-1.253521v-1.042253zm0-1.183098v-.887324zm0-1.028169-.01458-1.394367z" stroke="url(#e)"/></g></svg>

<?xml version="1.0" encoding="UTF-8" standalone="no"?>
<svg
   xmlns:dc="http://purl.org/dc/elements/1.1/"
   xmlns:cc="http://creativecommons.org/ns#"
   xmlns:rdf="http://www.w3.org/1999/02/22-rdf-syntax-ns#"
   xmlns:svg="http://www.w3.org/2000/svg"
   xmlns="http://www.w3.org/2000/svg"
   xmlns:xlink="http://www.w3.org/1999/xlink"
   xmlns:sodipodi="http://sodipodi.sourceforge.net/DTD/sodipodi-0.dtd"
   xmlns:inkscape="http://www.inkscape.org/namespaces/inkscape"
   viewBox="0 0 24 24"
   version="1.1"
   id="svg42"
   sodipodi:docname="lc_verticalcaption.svg"
   inkscape:version="0.92.4 (unknown)"
   inkscape:export-filename="/home/rizmut/Dokumen/Rizmut/Github/libreoffice-style-elementary/images_elementary/cmd/lc_verticalcaption.png"
   inkscape:export-xdpi="96"
   inkscape:export-ydpi="96">
  <metadata
     id="metadata48">
    <rdf:RDF>
      <cc:Work
         rdf:about="">
        <dc:format>image/svg+xml</dc:format>
        <dc:type
           rdf:resource="http://purl.org/dc/dcmitype/StillImage" />
        <dc:title></dc:title>
      </cc:Work>
    </rdf:RDF>
  </metadata>
  <defs
     id="defs46">
    <radialGradient
       id="e-3"
       cx="605.71429"
       cy="486.64789"
       gradientTransform="matrix(-0.01204859,0,0,-0.0082353,17.761206,7.019521)"
       gradientUnits="userSpaceOnUse"
       r="117.14286"
       xlink:href="#a-6" />
    <linearGradient
       id="a-6">
      <stop
         offset="0"
         id="stop1112" />
      <stop
         offset="1"
         stop-opacity="0"
         id="stop1114" />
    </linearGradient>
    <linearGradient
       id="f-7"
       gradientTransform="matrix(0.0352071,0,0,-0.0082353,-0.724852,7.019538)"
       gradientUnits="userSpaceOnUse"
       x1="302.85715"
       x2="302.85715"
       y1="366.64789"
       y2="609.50507">
      <stop
         offset="0"
         stop-opacity="0"
         id="stop1133" />
      <stop
         offset=".5"
         id="stop1135" />
      <stop
         offset="1"
         stop-opacity="0"
         id="stop1137" />
    </linearGradient>
    <radialGradient
       id="d-5"
       cx="605.71429"
       cy="486.64789"
       gradientTransform="matrix(0.01204859,0,0,-0.0082353,13.238793,7.019521)"
       gradientUnits="userSpaceOnUse"
       r="117.14286"
       xlink:href="#a-6" />
    <linearGradient
       id="g"
       gradientTransform="matrix(0,-0.4507042,-0.46666668,0,22.881342,20.886296)"
       gradientUnits="userSpaceOnUse"
       x1="22.004084"
       x2="22.004084"
       y1="47.813133"
       y2="3.363852">
      <stop
         offset="0"
         stop-color="#aaa"
         id="stop1140" />
      <stop
         offset="1"
         stop-color="#c8c8c8"
         id="stop1142" />
    </linearGradient>
  </defs>
  <sodipodi:namedview
     pagecolor="#ffffff"
     bordercolor="#666666"
     borderopacity="1"
     objecttolerance="10"
     gridtolerance="10"
     guidetolerance="10"
     inkscape:pageopacity="0"
     inkscape:pageshadow="2"
     inkscape:window-width="1366"
     inkscape:window-height="714"
     id="namedview44"
     showgrid="true"
     inkscape:zoom="16"
     inkscape:cx="7.2618238"
     inkscape:cy="8.8098235"
     inkscape:window-x="0"
     inkscape:window-y="28"
     inkscape:window-maximized="1"
     inkscape:current-layer="g867">
    <inkscape:grid
       type="xygrid"
       id="grid858" />
  </sodipodi:namedview>
  <radialGradient
     id="a"
     cx="2.25"
     cy="16"
     gradientTransform="matrix(.25461393 0 0 .06210065 5.164407 18.943745)"
     gradientUnits="userSpaceOnUse"
     r="16.875">
    <stop
       offset="0"
       id="stop2" />
    <stop
       offset="1"
       stop-opacity="0"
       id="stop4" />
  </radialGradient>
  <linearGradient
     id="b">
    <stop
       offset="0"
       stop-color="#fff"
       id="stop7" />
    <stop
       offset="0.11111111"
       stop-color="#fff"
       stop-opacity=".235294"
       id="stop9" />
    <stop
       offset="1"
       stop-color="#fff"
       stop-opacity=".156863"
       id="stop11" />
    <stop
       offset="1"
       stop-color="#fff"
       stop-opacity=".392157"
       id="stop13" />
  </linearGradient>
  <linearGradient
     id="c"
     gradientUnits="userSpaceOnUse"
     x1="11"
     x2="20"
     xlink:href="#b"
     y1="9.5"
     y2="9.5" />
  <linearGradient
     id="d"
     gradientUnits="userSpaceOnUse"
     x1="16"
     x2="16"
     y1="13"
     y2="1">
    <stop
       offset="0"
       stop-color="#f4f4f4"
       id="stop17" />
    <stop
       offset="1"
       stop-color="#dbdbdb"
       id="stop19" />
  </linearGradient>
  <linearGradient
     id="e"
     gradientUnits="userSpaceOnUse"
     x1="15"
     x2="15"
     y1="20"
     y2="4">
    <stop
       offset="0"
       stop-opacity=".339506"
       id="stop22" />
    <stop
       offset="1"
       stop-opacity=".246914"
       id="stop24" />
  </linearGradient>
  <linearGradient
     id="f"
     gradientUnits="userSpaceOnUse"
     x1="15"
     x2="15"
     xlink:href="#b"
     y1="16"
     y2="7" />
  <g
     id="g867"
     transform="matrix(1,0,0,-1,0,24)">
    <g
       id="g1790">
      <path
         id="path1152"
         d="M 10.5,4 V 2.000109 C 9.8795276,1.996309 9.0000001,2.448184 9.0000001,3.000184 9.0000001,3.552183 9.6924001,4 10.5,4 Z"
         style="opacity:0.15;fill:url(#e-3)"
         inkscape:connector-curvature="0" />
      <path
         id="path1150"
         d="m 10.5,4 9.999999,8.5e-5 v -2 L 10.5,2 Z"
         style="opacity:0.15;fill:url(#f-7)"
         inkscape:connector-curvature="0"
         sodipodi:nodetypes="ccccc" />
      <path
         id="path1154"
         d="M 20.5,4 V 2.000109 C 21.120472,1.996309 22,2.448184 22,3.000184 22,3.552183 21.307598,4 20.5,4 Z"
         style="opacity:0.15;fill:url(#d-5)"
         inkscape:connector-curvature="0" />
    </g>
    <path
       id="path28"
       d="M 11,4 V 4.5 17 h 9 V 4 Z m 1,1 h 7 v 11 h -7 z"
       style="fill:url(#c)"
       inkscape:connector-curvature="0" />
    <path
       id="path32"
       d="m 10.5,3.5 v 14 h 10 V 3.5 Z M 6.6875,8.5 4.53125,19.3125 4.5,19.5 h 2 l 1.78125,-8 H 11 L 10.85838,8.4779029 Z"
       style="fill:url(#d)"
       inkscape:connector-curvature="0"
       sodipodi:nodetypes="ccccccccccccc" />
    <path
       id="path34"
       d="m 11.5,4.5 h 8 v 12 h -8 z"
       style="fill:none;stroke:url(#f)"
       inkscape:connector-curvature="0" />
    <path
       id="path38"
       d="M 10,3 V 3.5 8.0039062 H 9.4277344 L 9.4296875,8 H 6.2753906 L 6.1972656,8.4042969 C 5.491898,12.00882 4.7619268,15.610287 4.0410156,19.214844 l -0.00195,0.0078 L 3.9101562,20 h 2.9902344 l 0.087891,-0.390625 C 7.5940334,16.903282 8.03609,14.677582 8.6015625,12 H 10 v 6 H 21 V 3 Z m 1,1 h 9 V 17 H 11 V 11 H 10 8.8320312 c 4.514e-4,-0.002 0.0015,-0.0039 0.00195,-0.0059 H 7.8242156 C 7.1858784,13.835752 6.7027976,16.194525 6.0917969,19 H 5.1035156 C 5.7704435,15.668395 6.4430317,12.336675 7.0976562,9 8.403831,8.9965675 9.7000663,9.0117188 11,9.0117188 Z"
       style="fill:url(#e)"
       inkscape:connector-curvature="0"
       sodipodi:nodetypes="cccccccccccccccccccccccccccccccc" />
    <path
       id="path40"
       d="M 8.0117156,10.10348 11,10.09375 V 11 L 7.8242156,10.9941 Z"
       inkscape:connector-curvature="0"
       style="fill:#fdfdfb"
       sodipodi:nodetypes="ccccc" />
    <path
       inkscape:connector-curvature="0"
       style="stroke:url(#g)"
       d="m 17.492709,15.035211 v -1.647888 z m 0,-1.830986 v -0.788732 z m 0,-0.929578 v -0.394365 z m 0,-0.549296 v -0.718309 z m 0,-0.873238 v -0.732395 z m 0,-0.87324 V 8.809859 Z m 0,-1.323943 V 7.133803 Z m 0,-1.661972 V 5.978873 Z m 0,-1.15493 V 5.584507 Z m -2,9.197183 v -1.929578 z m 0,-2.084507 v -2.084507 z m 0,-2.225352 V 9.894366 Z m 0,-0.971831 V 7.795774 Z m 0,-2.084507 V 6.330986 Z m 0,-1.492958 V 5.640845 Z M 13.5,15 v -1.394366 z m 0,-1.535211 v -2.28169 z m 0,-2.422536 V 9.929577 Z m 0,-1.253521 V 8.746479 Z m 0,-1.183098 V 7.71831 Z m 0,-1.028169 -0.01458,-1.394367 z"
       id="path1162"
       sodipodi:nodetypes="ccccccccccccccccccccccccccccccccccccccccccccccccccccccccccccccc" />
  </g>
</svg>
